kushal-a/robot_pinochhio/core/node_parsed.txt
22 serialization::archive 20 0 0 16 15 0 0 2 2 1 1 1 1 1 1 1 1 1 1 1 1 15 0 0 0 2 4 5 6 7 8 9 10 11 12 13 14 15 14 15 0 0 1 1 1 1 1 1 1 1 1 1 1 1 1 1 15 0 0 0 1 2 3 4 5 6 7 8 9 10 11 12 13 15 15 108 15 0 0 0 0 0 3 4 5 6 7 8 9 10 10 3 13 0 0 15 0 3 0 1 2 3 0 0 0 0 2 0 4 13 1 0 5 1 0 6 1 0 7 1 0 8 1 0 9 1 0 10 2 0 11 12 0 0 0 0 1 0 14 0 0 0 0 15 0 8 universe 16 wheel_left_joint 17 wheel_right_joint 16 torso_lift_joint 11 arm_1_joint 11 arm_2_joint 11 arm_3_joint 11 arm_4_joint 11 arm_5_joint 11 arm_6_joint 11 arm_7_joint 25 gripper_left_finger_joint 26 gripper_right_finger_joint 12 head_1_joint 12 head_2_joint 15 0 1 0 0 2 0 0 1 2 0 0 2 2 0 0 3 3 0 0 3 4 4 0 0 3 4 5 5 0 0 3 4 5 6 6 0 0 3 4 5 6 7 7 0 0 3 4 5 6 7 8 8 0 0 3 4 5 6 7 8 9 9 0 0 3 4 5 6 7 8 9 10 10 0 0 3 4 5 6 7 8 9 10 11 10 0 0 3 4 5 6 7 8 9 10 12 3 0 0 3 13 4 0 0 3 13 14 15 0 14 0 1 2 3 4 5 6 7 8 9 10 11 12 13 14 1 0 1 1 0 2 12 0 3 4 5 6 7 8 9 10 11 12 13 14 9 0 4 5 6 7 8 9 10 11 12 8 0 5 6 7 8 9 10 11 12 7 0 6 7 8 9 10 11 12 6 0 7 8 9 10 11 12 5 0 8 9 10 11 12 4 0 9 10 11 12 3 0 10 11 12 1 0 11 1 0 12 2 0 13 14 1 0 14 0 0 0.00000000000000000e+00 0.00000000000000000e+00 -9.81000000000000050e+00 0.00000000000000000e+00 0.00000000000000000e+00 0.00000000000000000e+00 5 tiago 0 0 0 0 0 0 14 0.00000000000000000e+00 0.00000000000000000e+00 0.00000000000000000e+00 0.00000000000000000e+00 0.00000000000000000e+00 0.00000000000000000e+00 0.00000000000000000e+00 0.00000000000000000e+00 0.00000000000000000e+00 0.00000000000000000e+00 0.00000000000000000e+00 0.00000000000000000e+00 0.00000000000000000e+00 0.00000000000000000e+00 14 0.00000000000000000e+00 0.00000000000000000e+00 0.00000000000000000e+00 0.00000000000000000e+00 0.00000000000000000e+00 0.00000000000000000e+00 0.00000000000000000e+00 0.00000000000000000e+00 0.00000000000000000e+00 0.00000000000000000e+00 0.00000000000000000e+00 0.00000000000000000e+00 0.00000000000000000e+00 0.00000000000000000e+00 14 1.00000000000000000e+00 1.00000000000000000e+00 1.00000000000000000e+00 1.00000000000000000e+00 1.00000000000000000e+00 1.00000000000000000e+00 1.00000000000000000e+00 1.00000000000000000e+00 1.00000000000000000e+00 1.00000000000000000e+00 1.00000000000000000e+00 1.00000000000000000e+00 1.00000000000000000e+00 1.00000000000000000e+00 14 2.00000000000000000e+00 2.00000000000000000e+00 0.00000000000000000e+00 1.00000000000000000e+00 1.00000000000000000e+00 1.00000000000000000e+00 1.00000000000000000e+00 1.00000000000000000e+00 1.00000000000000000e+00 1.00000000000000000e+00 2.00000000000000000e+00 2.00000000000000000e+00 1.00000000000000000e+00 1.00000000000000000e+00 14 1.00000000000000000e+00 1.00000000000000000e+00 1.00000000000000000e+03 4.00000000000000000e+01 4.00000000000000000e+01 4.00000000000000000e+01 4.00000000000000000e+01 1.00000000000000000e+00 1.00000000000000000e+00 1.00000000000000000e+00 8.00000000000000000e+01 8.00000000000000000e+01 5.00000000000000000e-01 5.00000000000000000e-01 14 6.00000000000000000e+00 6.00000000000000000e+00 2.00000000000000000e+03 4.30000000000000000e+01 4.30000000000000000e+01 2.60000000000000000e+01 2.60000000000000000e+01 3.00000000000000000e+00 6.59999999999999964e+00 6.59999999999999964e+00 1.60000000000000000e+01 1.60000000000000000e+01 5.19700000000000006e+00 2.77000000000000002e+00 14 1.01522842639593911e+01 1.01522842639593911e+01 7.00000000000000067e-02 1.94999999999999996e+00 1.94999999999999996e+00 2.35000000000000009e+00 2.35000000000000009e+00 1.94999999999999996e+00 1.76000000000000001e+00 1.76000000000000001e+00 5.00000000000000028e-02 5.00000000000000028e-02 3.00000000000000000e+00 3.00000000000000000e+00 16 -1.01000000000000001e+00 -1.01000000000000001e+00 -1.01000000000000001e+00 -1.01000000000000001e+00 0.00000000000000000e+00 0.00000000000000000e+00 -1.57079632679489656e+00 -3.53429173528851726e+00 -3.92699081698724139e-01 -2.09439510239319526e+00 -1.41371669411540690e+00 -2.09439510239319526e+00 0.00000000000000000e+00 0.00000000000000000e+00 -1.30899693899574721e+00 -1.04719755119659763e+00 16 1.01000000000000001e+00 1.01000000000000001e+00 1.01000000000000001e+00 1.01000000000000001e+00 3.49999999999999978e-01 2.74889357189106898e+00 1.09083078249645604e+00 1.57079632679489656e+00 2.35619449019234484e+00 2.09439510239319526e+00 1.41371669411540690e+00 2.09439510239319526e+00 4.49999999999999983e-02 4.49999999999999983e-02 1.30899693899574721e+00 7.85398163397448279e-01 0 0 15 0 0 0 6.34427858000000029e+01 -6.59747714133536532e-03 -1.02672176339194121e-03 1.69505518736975308e-01 0 0 4.28570954823305694e+00 5.33464030063488144e-04 4.37795991662123729e+00 1.27486391691852163e-01 1.68150823728821681e-02 2.69283026347368359e+00 1.82362000000000002e+00 0.00000000000000000e+00 0.00000000000000000e+00 2.06999999999999979e-03 4.99743170999999986e-03 -4.46400000000000014e-08 4.99741733000000007e-03 -2.24499999999999992e-08 1.63999999999999992e-09 8.39239691999999968e-03 1.82362000000000002e+00 0.00000000000000000e+00 0.00000000000000000e+00 -2.06999999999999979e-03 4.99743170999999986e-03 4.46400000000000014e-08 4.99741733000000007e-03 -2.24499999999999992e-08 -1.63999999999999992e-09 8.39239691999999968e-03 6.93198000000000025e+00 4.36100000000000029e-02 -1.16000000000000001e-03 -1.73339999999999994e-01 2.44870000000000004e-01 -1.45600000000000005e-03 2.49268999999999991e-01 -9.74200000000000066e-03 8.28100000000000017e-03 9.03950000000000031e-02 1.56342800000000004e+00 6.11910000000000023e-02 -2.23970000000000002e-02 -1.28349999999999992e-02 2.47100000000000011e-03 -1.80900000000000006e-03 6.13200000000000030e-03 -1.20199999999999994e-03 4.93999999999999973e-04 6.70399999999999989e-03 1.80039700000000003e+00 3.04320000000000007e-02 2.29000000000000010e-04 -5.94200000000000023e-03 1.80899999999999984e-03 1.50000000000000004e-05 4.33300000000000005e-03 2.53999999999999994e-04 1.39999999999999998e-05 4.34100000000000024e-03 1.80000000000000004e+00 7.41800000000000011e-03 -4.36100000000000029e-03 -1.34194000000000008e-01 1.95409999999999993e-02 -1.05000000000000004e-04 1.99359999999999989e-02 -1.71699999999999999e-03 8.52000000000000001e-04 2.86399999999999979e-03 1.43269700000000011e+00 -9.56580000000000069e-02 1.46660000000000002e-02 1.81329999999999998e-02 2.04000000000000015e-03 7.24999999999999950e-04 8.42399999999999920e-03 -1.14999999999999998e-03 -2.03999999999999998e-04 8.68599999999999928e-03 9.35914368900000015e-01 1.07799999999999953e-03 -1.50999999999999957e-04 -7.71729999999999777e-02 1.03618797700000004e-03 1.06223210000000005e-07 7.94527176366096048e-04 1.99203360000000007e-06 -2.56396106998403984e-07 4.39831229979178019e-04 3.02757672219999996e-01 -1.52999999999999951e-04 -3.12199999999999934e-03 1.82999999999999949e-04 3.29233557000000021e-05 6.31537395000000056e-08 3.85334410118923001e-05 -4.56712491200000022e-11 -2.01613082836742000e-07 3.33282849168038984e-05 9.97859999999999969e-01 -1.74748020764447089e-04 1.77261379351823645e-04 8.12765976790331274e-02 2.35277539140011250e-03 4.38815804653410789e-05 2.02063865458842118e-03 4.34945068328658805e-06 -4.34288519779486836e-06 7.39231208875374161e-04 1.09979999999999994e-01 -4.46999999999999828e-03 1.07659999999999961e-02 -1.21012999999999968e-01 2.32000000000000028e-04 -5.00000000000000041e-06 2.23999999999999997e-04 -3.19999999999999986e-05 3.60000000000000009e-05 2.90000000000000002e-05 1.09979999999999994e-01 -4.46999999999999828e-03 1.07659999999999961e-02 -1.21012999999999968e-01 2.32000000000000028e-04 -5.00000000000000041e-06 2.23999999999999997e-04 -3.19999999999999986e-05 3.60000000000000009e-05 2.90000000000000002e-05 6.22199999999999975e-01 -5.08000000000000031e-03 2.37000000000000014e-03 7.22899999999999932e-02 1.19199999999999992e-03 -6.99999999999999989e-06 1.40200000000000003e-03 9.60000000000000024e-05 3.99999999999999982e-06 8.89000000000000033e-04 8.86929999999999996e-01 5.58273798383186956e-02 6.09987097065157330e-02 1.58542387787084630e-05 4.77062219275142200e-03 5.60915913586512694e-04 5.13367924375403989e-03 1.19415330443345068e-05 9.32647223440914598e-06 3.47597988985339510e-03 0 0 15 0 0 0 0.00000000000000000e+00 0.00000000000000000e+00 0.00000000000000000e+00 1.00000000000000000e+00 0.00000000000000000e+00 0.00000000000000000e+00 0.00000000000000000e+00 1.00000000000000000e+00 0.00000000000000000e+00 0.00000000000000000e+00 0.00000000000000000e+00 1.00000000000000000e+00 0.00000000000000000e+00 2.02199999999999991e-01 9.85000000000000042e-02 1.00000000000000000e+00 0.00000000000000000e+00 0.00000000000000000e+00 0.00000000000000000e+00 2.22044604925031308e-16 -1.00000000000000000e+00 0.00000000000000000e+00 1.00000000000000000e+00 2.22044604925031308e-16 0.00000000000000000e+00 -2.02199999999999991e-01 9.85000000000000042e-02 1.00000000000000000e+00 0.00000000000000000e+00 0.00000000000000000e+00 0.00000000000000000e+00 2.22044604925031308e-16 -1.00000000000000000e+00 0.00000000000000000e+00 1.00000000000000000e+00 2.22044604925031308e-16 -6.19999999999999996e-02 0.00000000000000000e+00 8.88499999999999956e-01 1.00000000000000000e+00 0.00000000000000000e+00 0.00000000000000000e+00 0.00000000000000000e+00 1.00000000000000000e+00 0.00000000000000000e+00 0.00000000000000000e+00 0.00000000000000000e+00 1.00000000000000000e+00 1.55049999999999993e-01 1.40000000000000003e-02 -1.50999999999999995e-01 2.22044604925031308e-16 -1.00000000000000000e+00 0.00000000000000000e+00 1.00000000000000000e+00 2.22044604925031308e-16 0.00000000000000000e+00 0.00000000000000000e+00 0.00000000000000000e+00 1.00000000000000000e+00 1.25000000000000000e-01 1.95000000000000000e-02 -3.09999999999999998e-02 1.00000000000000000e+00 0.00000000000000000e+00 0.00000000000000000e+00 0.00000000000000000e+00 2.22044604925031308e-16 1.00000000000000000e+00 0.00000000000000000e+00 -1.00000000000000000e+00 2.22044604925031308e-16 8.94999999999999962e-02 0.00000000000000000e+00 -1.50000000000000003e-03 2.22044604925031308e-16 1.00000000000000000e+00 0.00000000000000000e+00 -2.22044604925031308e-16 0.00000000000000000e+00 -1.00000000000000000e+00 -1.00000000000000000e+00 2.22044604925031308e-16 2.22044604925031308e-16 -2.00000000000000004e-02 -2.69999999999999997e-02 -2.22000000000000003e-01 2.22044604925031308e-16 0.00000000000000000e+00 1.00000000000000000e+00 1.00000000000000000e+00 2.22044604925031308e-16 -2.22044604925031308e-16 -2.22044604925031308e-16 1.00000000000000000e+00 0.00000000000000000e+00 -1.62000000000000005e-01 2.00000000000000004e-02 2.69999999999999997e-02 -2.22044604925031308e-16 -1.57009245868377541e-16 1.00000000000000022e+00 0.00000000000000000e+00 1.00000000000000000e+00 1.57009245868377541e-16 -1.00000000000000022e+00 0.00000000000000000e+00 -2.22044604925031308e-16 0.00000000000000000e+00 0.00000000000000000e+00 1.49999999999999994e-01 0.00000000000000000e+00 -2.22044604925031308e-16 1.00000000000000000e+00 1.00000000000000000e+00 2.22044604925031308e-16 0.00000000000000000e+00 -2.22044604925031308e-16 1.00000000000000000e+00 2.22044604925031308e-16 0.00000000000000000e+00 0.00000000000000000e+00 0.00000000000000000e+00 2.22044604925031308e-16 1.00000000000000000e+00 0.00000000000000000e+00 -2.22044604925031308e-16 0.00000000000000000e+00 1.00000000000000000e+00 1.00000000000000000e+00 -2.22044604925031308e-16 2.22044604925031308e-16 -1.16240350678253876e-17 2.48689957516035294e-18 7.24500000000000005e-02 -3.79053850793408849e-16 -1.00000000000000044e+00 2.22044604925031456e-16 -1.00000000000000067e+00 6.01098455718440404e-16 9.19738868117238239e-17 1.30070718113307386e-16 -4.44089209850062616e-16 -1.00000000000000044e+00 -1.16240350678253876e-17 2.48689957516035294e-18 7.24500000000000005e-02 -3.79053850793408849e-16 -1.00000000000000044e+00 2.22044604925031456e-16 -1.00000000000000067e+00 6.01098455718440404e-16 9.19738868117238239e-17 1.30070718113307386e-16 -4.44089209850062616e-16 -1.00000000000000044e+00 1.81999999999999995e-01 0.00000000000000000e+00 0.00000000000000000e+00 1.00000000000000000e+00 0.00000000000000000e+00 0.00000000000000000e+00 0.00000000000000000e+00 1.00000000000000000e+00 0.00000000000000000e+00 0.00000000000000000e+00 0.00000000000000000e+00 1.00000000000000000e+00 5.00000000000000010e-03 0.00000000000000000e+00 9.80000000000000038e-02 1.00000000000000000e+00 0.00000000000000000e+00 0.00000000000000000e+00 0.00000000000000000e+00 2.22044604925031308e-16 1.00000000000000000e+00 0.00000000000000000e+00 -1.00000000000000000e+00 2.22044604925031308e-16 0 0 15 0 0 0 18446744073709551615 -1 -1 1 0
0 0 0 0 18446744073709551615 -1 -1 1 0 0
1 18 0 0 1 0 0 2 2 1
2 18 2 2 1 3 4 2
3 13 0 0 3 4 2 4 5 3
4 2 0 0 4 5 3 5 6 4
5 2 5 6 4 6 7 5
6 2 6 7 5 7 8 6
7 2 7 8 6 8 9 7
8 2 8 9 7 9 10 8
9 2 9 10 8 10 11 9
10 2 10 11 9 11 12 10
11 14 0 0 11 12 10 0 0 -1.00000000000000000e+00 0.00000000000000000e+00 0.00000000000000000e+00 12 13 11
12 11 0 0 12 13 11 13 14 12
13 2 13 14 12 14 15 13
14 2 14 15 13 0 0 108 1 0 1 8 universe 0 0 0.00000000000000000e+00 0.00000000000000000e+00 0.00000000000000000e+00 1.00000000000000000e+00 0.00000000000000000e+00 0.00000000000000000e+00 0.00000000000000000e+00 1.00000000000000000e+00 0.00000000000000000e+00 0.00000000000000000e+00 0.00000000000000000e+00 1.00000000000000000e+00 4 0.00000000000000000e+00 0.00000000000000000e+00 0.00000000000000000e+00 0.00000000000000000e+00 0.00000000000000000e+00 0.00000000000000000e+00 0.00000000000000000e+00 0.00000000000000000e+00 0.00000000000000000e+00 0.00000000000000000e+00 14 base_footprint 0 0 0.00000000000000000e+00 0.00000000000000000e+00 0.00000000000000000e+00 1.00000000000000000e+00 0.00000000000000000e+00 0.00000000000000000e+00 0.00000000000000000e+00 1.00000000000000000e+00 0.00000000000000000e+00 0.00000000000000000e+00 0.00000000000000000e+00 1.00000000000000000e+00 8 0.00000000000000000e+00 0.00000000000000000e+00 0.00000000000000000e+00 0.00000000000000000e+00 0.00000000000000000e+00 0.00000000000000000e+00 0.00000000000000000e+00 0.00000000000000000e+00 0.00000000000000000e+00 0.00000000000000000e+00 20 base_footprint_joint 0 1 0.00000000000000000e+00 0.00000000000000000e+00 9.85000000000000042e-02 1.00000000000000000e+00 0.00000000000000000e+00 0.00000000000000000e+00 0.00000000000000000e+00 1.00000000000000000e+00 0.00000000000000000e+00 0.00000000000000000e+00 0.00000000000000000e+00 1.00000000000000000e+00 4 2.82664900000000010e+01 -1.06000000000000002e-06 1.08999999999999994e-06 3.86999999999999988e-05 4.65408937000000023e-01 2.16002399999999997e-03 4.83193291000000025e-01 -1.76025500000000007e-03 -6.55952000000000011e-04 5.50939702999999947e-01 9 base_link 0 2 0.00000000000000000e+00 0.00000000000000000e+00 9.85000000000000042e-02 1.00000000000000000e+00 0.00000000000000000e+00 0.00000000000000000e+00 0.00000000000000000e+00 1.00000000000000000e+00 0.00000000000000000e+00 0.00000000000000000e+00 0.00000000000000000e+00 1.00000000000000000e+00 8 0.00000000000000000e+00 0.00000000000000000e+00 0.00000000000000000e+00 0.00000000000000000e+00 0.00000000000000000e+00 0.00000000000000000e+00 0.00000000000000000e+00 0.00000000000000000e+00 0.00000000000000000e+00 0.00000000000000000e+00 23 base_antenna_left_joint 0 3 -2.01000000000000012e-01 1.06200000000000003e-01 2.93499999999999983e-01 1.00000000000000000e+00 0.00000000000000000e+00 0.00000000000000000e+00 0.00000000000000000e+00 1.00000000000000000e+00 0.00000000000000000e+00 0.00000000000000000e+00 0.00000000000000000e+00 1.00000000000000000e+00 4 9.99999999999999955e-07 0.00000000000000000e+00 0.00000000000000000e+00 0.00000000000000000e+00 2.37099999999999986e-08 6.11899999999999940e-08 2.83299999999999996e-08 1.17900000000000000e-08 7.74000000000000016e-09 3.84900000000000025e-08 22 base_antenna_left_link 0 4 -2.01000000000000012e-01 1.06200000000000003e-01 2.93499999999999983e-01 1.00000000000000000e+00 0.00000000000000000e+00 0.00000000000000000e+00 0.00000000000000000e+00 1.00000000000000000e+00 0.00000000000000000e+00 0.00000000000000000e+00 0.00000000000000000e+00 1.00000000000000000e+00 8 0.00000000000000000e+00 0.00000000000000000e+00 0.00000000000000000e+00 0.00000000000000000e+00 0.00000000000000000e+00 0.00000000000000000e+00 0.00000000000000000e+00 0.00000000000000000e+00 0.00000000000000000e+00 0.00000000000000000e+00 24 base_antenna_right_joint 0 3 -2.01000000000000012e-01 -1.06200000000000003e-01 2.93499999999999983e-01 1.00000000000000000e+00 0.00000000000000000e+00 0.00000000000000000e+00 0.00000000000000000e+00 1.00000000000000000e+00 0.00000000000000000e+00 0.00000000000000000e+00 0.00000000000000000e+00 1.00000000000000000e+00 4 9.99999999999999955e-07 0.00000000000000000e+00 0.00000000000000000e+00 0.00000000000000000e+00 2.37099999999999986e-08 6.11899999999999940e-08 2.83299999999999996e-08 1.17900000000000000e-08 7.74000000000000016e-09 3.84900000000000025e-08 23 base_antenna_right_link 0 6 -2.01000000000000012e-01 -1.06200000000000003e-01 2.93499999999999983e-01 1.00000000000000000e+00 0.00000000000000000e+00 0.00000000000000000e+00 0.00000000000000000e+00 1.00000000000000000e+00 0.00000000000000000e+00 0.00000000000000000e+00 0.00000000000000000e+00 1.00000000000000000e+00 8 0.00000000000000000e+00 0.00000000000000000e+00 0.00000000000000000e+00 0.00000000000000000e+00 0.00000000000000000e+00 0.00000000000000000e+00 0.00000000000000000e+00 0.00000000000000000e+00 0.00000000000000000e+00 0.00000000000000000e+00 9 base_dock 0 3 2.67500000000000016e-01 0.00000000000000000e+00 1.59500000000000003e-01 1.00000000000000000e+00 0.00000000000000000e+00 0.00000000000000000e+00 0.00000000000000000e+00 1.00000000000000000e+00 0.00000000000000000e+00 0.00000000000000000e+00 0.00000000000000000e+00 1.00000000000000000e+00 4 3.22419999999999998e-02 -3.70820000000000004e-03 1.52260000000000009e-18 -4.16330000000000003e-17 2.13020000000000004e-05 -1.04610000000000000e-21 1.20580000000000004e-05 6.65549999999999993e-22 -1.94530000000000011e-21 1.00579999999999992e-05 14 base_dock_link 0 8 2.67500000000000016e-01 0.00000000000000000e+00 1.59500000000000003e-01 1.00000000000000000e+00 0.00000000000000000e+00 0.00000000000000000e+00 0.00000000000000000e+00 1.00000000000000000e+00 0.00000000000000000e+00 0.00000000000000000e+00 0.00000000000000000e+00 1.00000000000000000e+00 8 0.00000000000000000e+00 0.00000000000000000e+00 0.00000000000000000e+00 0.00000000000000000e+00 0.00000000000000000e+00 0.00000000000000000e+00 0.00000000000000000e+00 0.00000000000000000e+00 0.00000000000000000e+00 0.00000000000000000e+00 14 base_imu_joint 0 3 1.01709999999999995e-01 0.00000000000000000e+00 2.11320000000000008e-01 2.22044604925031308e-16 -1.00000000000000000e+00 0.00000000000000000e+00 1.00000000000000000e+00 2.22044604925031308e-16 0.00000000000000000e+00 0.00000000000000000e+00 0.00000000000000000e+00 1.00000000000000000e+00 4 1.00000000000000002e-02 0.00000000000000000e+00 0.00000000000000000e+00 0.00000000000000000e+00 9.99999999999999955e-07 0.00000000000000000e+00 9.99999999999999955e-07 0.00000000000000000e+00 0.00000000000000000e+00 9.99999999999999955e-07 13 base_imu_link 0 10 1.01709999999999995e-01 0.00000000000000000e+00 2.11320000000000008e-01 2.22044604925031308e-16 -1.00000000000000000e+00 0.00000000000000000e+00 1.00000000000000000e+00 2.22044604925031308e-16 0.00000000000000000e+00 0.00000000000000000e+00 0.00000000000000000e+00 1.00000000000000000e+00 8 0.00000000000000000e+00 0.00000000000000000e+00 0.00000000000000000e+00 0.00000000000000000e+00 0.00000000000000000e+00 0.00000000000000000e+00 0.00000000000000000e+00 0.00000000000000000e+00 0.00000000000000000e+00 0.00000000000000000e+00 16 base_laser_joint 0 3 2.02000000000000013e-01 0.00000000000000000e+00 9.45000000000000007e-02 1.00000000000000000e+00 0.00000000000000000e+00 0.00000000000000000e+00 0.00000000000000000e+00 1.00000000000000000e+00 0.00000000000000000e+00 0.00000000000000000e+00 0.00000000000000000e+00 1.00000000000000000e+00 4 2.89219999999999977e-01 -2.55900000000000016e-02 -5.59999999999999951e-04 -5.73200000000000029e-02 2.62891900000000016e-05 2.42980000000000022e-07 3.37454199999999985e-05 -3.68128999999999995e-06 -1.33000000000000000e-08 5.83259900000000030e-05 15 base_laser_link 0 12 2.02000000000000013e-01 0.00000000000000000e+00 9.45000000000000007e-02 1.00000000000000000e+00 0.00000000000000000e+00 0.00000000000000000e+00 0.00000000000000000e+00 1.00000000000000000e+00 0.00000000000000000e+00 0.00000000000000000e+00 0.00000000000000000e+00 1.00000000000000000e+00 8 0.00000000000000000e+00 0.00000000000000000e+00 0.00000000000000000e+00 0.00000000000000000e+00 0.00000000000000000e+00 0.00000000000000000e+00 0.00000000000000000e+00 0.00000000000000000e+00 0.00000000000000000e+00 0.00000000000000000e+00 24 base_mic_back_left_joint 0 3 -1.08200000000000005e-01 -5.99000000000000019e-02 2.93499999999999983e-01 1.00000000000000000e+00 0.00000000000000000e+00 0.00000000000000000e+00 0.00000000000000000e+00 1.00000000000000000e+00 0.00000000000000000e+00 0.00000000000000000e+00 0.00000000000000000e+00 1.00000000000000000e+00 4 0.00000000000000000e+00 0.00000000000000000e+00 0.00000000000000000e+00 0.00000000000000000e+00 0.00000000000000000e+00 0.00000000000000000e+00 0.00000000000000000e+00 0.00000000000000000e+00 0.00000000000000000e+00 0.00000000000000000e+00 23 base_mic_back_left_link 0 14 -1.08200000000000005e-01 -5.99000000000000019e-02 2.93499999999999983e-01 1.00000000000000000e+00 0.00000000000000000e+00 0.00000000000000000e+00 0.00000000000000000e+00 1.00000000000000000e+00 0.00000000000000000e+00 0.00000000000000000e+00 0.00000000000000000e+00 1.00000000000000000e+00 8 0.00000000000000000e+00 0.00000000000000000e+00 0.00000000000000000e+00 0.00000000000000000e+00 0.00000000000000000e+00 0.00000000000000000e+00 0.00000000000000000e+00 0.00000000000000000e+00 0.00000000000000000e+00 0.00000000000000000e+00 25 base_mic_back_right_joint 0 3 -1.08200000000000005e-01 -1.37890000000000013e-01 2.93499999999999983e-01 1.00000000000000000e+00 0.00000000000000000e+00 0.00000000000000000e+00 0.00000000000000000e+00 1.00000000000000000e+00 0.00000000000000000e+00 0.00000000000000000e+00 0.00000000000000000e+00 1.00000000000000000e+00 4 0.00000000000000000e+00 0.00000000000000000e+00 0.00000000000000000e+00 0.00000000000000000e+00 0.00000000000000000e+00 0.00000000000000000e+00 0.00000000000000000e+00 0.00000000000000000e+00 0.00000000000000000e+00 0.00000000000000000e+00 24 base_mic_back_right_link 0 16 -1.08200000000000005e-01 -1.37890000000000013e-01 2.93499999999999983e-01 1.00000000000000000e+00 0.00000000000000000e+00 0.00000000000000000e+00 0.00000000000000000e+00 1.00000000000000000e+00 0.00000000000000000e+00 0.00000000000000000e+00 0.00000000000000000e+00 1.00000000000000000e+00 8 0.00000000000000000e+00 0.00000000000000000e+00 0.00000000000000000e+00 0.00000000000000000e+00 0.00000000000000000e+00 0.00000000000000000e+00 0.00000000000000000e+00 0.00000000000000000e+00 0.00000000000000000e+00 0.00000000000000000e+00 25 base_mic_front_left_joint 0 3 2.31819999999999998e-01 3.90199999999999991e-02 2.93499999999999983e-01 1.00000000000000000e+00 0.00000000000000000e+00 0.00000000000000000e+00 0.00000000000000000e+00 1.00000000000000000e+00 0.00000000000000000e+00 0.00000000000000000e+00 0.00000000000000000e+00 1.00000000000000000e+00 4 0.00000000000000000e+00 0.00000000000000000e+00 0.00000000000000000e+00 0.00000000000000000e+00 0.00000000000000000e+00 0.00000000000000000e+00 0.00000000000000000e+00 0.00000000000000000e+00 0.00000000000000000e+00 0.00000000000000000e+00 24 base_mic_front_left_link 0 18 2.31819999999999998e-01 3.90199999999999991e-02 2.93499999999999983e-01 1.00000000000000000e+00 0.00000000000000000e+00 0.00000000000000000e+00 0.00000000000000000e+00 1.00000000000000000e+00 0.00000000000000000e+00 0.00000000000000000e+00 0.00000000000000000e+00 1.00000000000000000e+00 8 0.00000000000000000e+00 0.00000000000000000e+00 0.00000000000000000e+00 0.00000000000000000e+00 0.00000000000000000e+00 0.00000000000000000e+00 0.00000000000000000e+00 0.00000000000000000e+00 0.00000000000000000e+00 0.00000000000000000e+00 26 base_mic_front_right_joint 0 3 2.31819999999999998e-01 -3.90199999999999991e-02 2.93499999999999983e-01 1.00000000000000000e+00 0.00000000000000000e+00 0.00000000000000000e+00 0.00000000000000000e+00 1.00000000000000000e+00 0.00000000000000000e+00 0.00000000000000000e+00 0.00000000000000000e+00 1.00000000000000000e+00 4 0.00000000000000000e+00 0.00000000000000000e+00 0.00000000000000000e+00 0.00000000000000000e+00 0.00000000000000000e+00 0.00000000000000000e+00 0.00000000000000000e+00 0.00000000000000000e+00 0.00000000000000000e+00 0.00000000000000000e+00 25 base_mic_front_right_link 0 20 2.31819999999999998e-01 -3.90199999999999991e-02 2.93499999999999983e-01 1.00000000000000000e+00 0.00000000000000000e+00 0.00000000000000000e+00 0.00000000000000000e+00 1.00000000000000000e+00 0.00000000000000000e+00 0.00000000000000000e+00 0.00000000000000000e+00 1.00000000000000000e+00 8 0.00000000000000000e+00 0.00000000000000000e+00 0.00000000000000000e+00 0.00000000000000000e+00 0.00000000000000000e+00 0.00000000000000000e+00 0.00000000000000000e+00 0.00000000000000000e+00 0.00000000000000000e+00 0.00000000000000000e+00 19 base_sonar_01_joint 0 3 -1.82999999999999996e-01 -1.82999999999999996e-01 2.71499999999999964e-01 -7.07106781186547462e-01 -7.07106781186547462e-01 0.00000000000000000e+00 7.07106781186547462e-01 -7.07106781186547462e-01 0.00000000000000000e+00 0.00000000000000000e+00 0.00000000000000000e+00 1.00000000000000000e+00 4 1.00000000000000002e-03 0.00000000000000000e+00 0.00000000000000000e+00 0.00000000000000000e+00 9.99999999999999955e-07 0.00000000000000000e+00 9.99999999999999955e-07 0.00000000000000000e+00 0.00000000000000000e+00 9.99999999999999955e-07 18 base_sonar_01_link 0 22 -1.82999999999999996e-01 -1.82999999999999996e-01 2.71499999999999964e-01 -7.07106781186547462e-01 -7.07106781186547462e-01 0.00000000000000000e+00 7.07106781186547462e-01 -7.07106781186547462e-01 0.00000000000000000e+00 0.00000000000000000e+00 0.00000000000000000e+00 1.00000000000000000e+00 8 0.00000000000000000e+00 0.00000000000000000e+00 0.00000000000000000e+00 0.00000000000000000e+00 0.00000000000000000e+00 0.00000000000000000e+00 0.00000000000000000e+00 0.00000000000000000e+00 0.00000000000000000e+00 0.00000000000000000e+00 19 base_sonar_02_joint 0 3 -2.59000000000000008e-01 0.00000000000000000e+00 2.71499999999999964e-01 -1.00000000000000000e+00 1.22464679914735321e-16 0.00000000000000000e+00 -1.22464679914735321e-16 -1.00000000000000000e+00 0.00000000000000000e+00 0.00000000000000000e+00 0.00000000000000000e+00 1.00000000000000000e+00 4 1.00000000000000002e-03 0.00000000000000000e+00 0.00000000000000000e+00 0.00000000000000000e+00 9.99999999999999955e-07 0.00000000000000000e+00 9.99999999999999955e-07 0.00000000000000000e+00 0.00000000000000000e+00 9.99999999999999955e-07 18 base_sonar_02_link 0 24 -2.59000000000000008e-01 0.00000000000000000e+00 2.71499999999999964e-01 -1.00000000000000000e+00 1.22464679914735321e-16 0.00000000000000000e+00 -1.22464679914735321e-16 -1.00000000000000000e+00 0.00000000000000000e+00 0.00000000000000000e+00 0.00000000000000000e+00 1.00000000000000000e+00 8 0.00000000000000000e+00 0.00000000000000000e+00 0.00000000000000000e+00 0.00000000000000000e+00 0.00000000000000000e+00 0.00000000000000000e+00 0.00000000000000000e+00 0.00000000000000000e+00 0.00000000000000000e+00 0.00000000000000000e+00 19 base_sonar_03_joint 0 3 -1.82999999999999996e-01 1.82999999999999996e-01 2.71499999999999964e-01 -7.07106781186547462e-01 7.07106781186547684e-01 0.00000000000000000e+00 -7.07106781186547684e-01 -7.07106781186547462e-01 0.00000000000000000e+00 0.00000000000000000e+00 0.00000000000000000e+00 1.00000000000000000e+00 4 1.00000000000000002e-03 0.00000000000000000e+00 0.00000000000000000e+00 0.00000000000000000e+00 9.99999999999999955e-07 0.00000000000000000e+00 9.99999999999999955e-07 0.00000000000000000e+00 0.00000000000000000e+00 9.99999999999999955e-07 18 base_sonar_03_link 0 26 -1.82999999999999996e-01 1.82999999999999996e-01 2.71499999999999964e-01 -7.07106781186547462e-01 7.07106781186547684e-01 0.00000000000000000e+00 -7.07106781186547684e-01 -7.07106781186547462e-01 0.00000000000000000e+00 0.00000000000000000e+00 0.00000000000000000e+00 1.00000000000000000e+00 8 0.00000000000000000e+00 0.00000000000000000e+00 0.00000000000000000e+00 0.00000000000000000e+00 0.00000000000000000e+00 0.00000000000000000e+00 0.00000000000000000e+00 0.00000000000000000e+00 0.00000000000000000e+00 0.00000000000000000e+00 24 caster_back_left_1_joint 0 3 -1.73500000000000015e-01 1.01999999999999993e-01 6.50000000000000022e-02 1.00000000000000000e+00 0.00000000000000000e+00 0.00000000000000000e+00 0.00000000000000000e+00 1.00000000000000000e+00 0.00000000000000000e+00 0.00000000000000000e+00 0.00000000000000000e+00 1.00000000000000000e+00 4 5.14476099999999978e-02 -6.34599000000000014e-03 5.34700000000000014e-05 -2.03751900000000014e-02 1.51300000000000008e-05 -2.99999999999999973e-08 1.30900000000000000e-05 2.66999999999999985e-06 -4.99999999999999977e-08 1.19800000000000005e-05 23 caster_back_left_1_link 0 28 -1.73500000000000015e-01 1.01999999999999993e-01 6.50000000000000022e-02 1.00000000000000000e+00 0.00000000000000000e+00 0.00000000000000000e+00 0.00000000000000000e+00 1.00000000000000000e+00 0.00000000000000000e+00 0.00000000000000000e+00 0.00000000000000000e+00 1.00000000000000000e+00 8 0.00000000000000000e+00 0.00000000000000000e+00 0.00000000000000000e+00 0.00000000000000000e+00 0.00000000000000000e+00 0.00000000000000000e+00 0.00000000000000000e+00 0.00000000000000000e+00 0.00000000000000000e+00 0.00000000000000000e+00 24 caster_back_left_2_joint 0 29 -1.89500000000000002e-01 1.01999999999999993e-01 2.50000000000000014e-02 1.00000000000000000e+00 0.00000000000000000e+00 0.00000000000000000e+00 0.00000000000000000e+00 2.22044604925031308e-16 -1.00000000000000000e+00 0.00000000000000000e+00 1.00000000000000000e+00 2.22044604925031308e-16 4 8.85578399999999988e-02 0.00000000000000000e+00 0.00000000000000000e+00 0.00000000000000000e+00 1.07500000000000004e-05 0.00000000000000000e+00 1.54099999999999998e-05 0.00000000000000000e+00 0.00000000000000000e+00 1.07500000000000004e-05 23 caster_back_left_2_link 0 30 -1.89500000000000002e-01 1.01999999999999993e-01 2.50000000000000014e-02 1.00000000000000000e+00 0.00000000000000000e+00 0.00000000000000000e+00 0.00000000000000000e+00 2.22044604925031308e-16 -1.00000000000000000e+00 0.00000000000000000e+00 1.00000000000000000e+00 2.22044604925031308e-16 8 0.00000000000000000e+00 0.00000000000000000e+00 0.00000000000000000e+00 0.00000000000000000e+00 0.00000000000000000e+00 0.00000000000000000e+00 0.00000000000000000e+00 0.00000000000000000e+00 0.00000000000000000e+00 0.00000000000000000e+00 25 caster_back_right_1_joint 0 3 -1.73500000000000015e-01 -1.01999999999999993e-01 6.50000000000000022e-02 1.00000000000000000e+00 0.00000000000000000e+00 0.00000000000000000e+00 0.00000000000000000e+00 1.00000000000000000e+00 0.00000000000000000e+00 0.00000000000000000e+00 0.00000000000000000e+00 1.00000000000000000e+00 4 5.14476099999999978e-02 -6.34599000000000014e-03 5.34700000000000014e-05 -2.03751900000000014e-02 1.51300000000000008e-05 -2.99999999999999973e-08 1.30900000000000000e-05 2.66999999999999985e-06 -4.99999999999999977e-08 1.19800000000000005e-05 24 caster_back_right_1_link 0 32 -1.73500000000000015e-01 -1.01999999999999993e-01 6.50000000000000022e-02 1.00000000000000000e+00 0.00000000000000000e+00 0.00000000000000000e+00 0.00000000000000000e+00 1.00000000000000000e+00 0.00000000000000000e+00 0.00000000000000000e+00 0.00000000000000000e+00 1.00000000000000000e+00 8 0.00000000000000000e+00 0.00000000000000000e+00 0.00000000000000000e+00 0.00000000000000000e+00 0.00000000000000000e+00 0.00000000000000000e+00 0.00000000000000000e+00 0.00000000000000000e+00 0.00000000000000000e+00 0.00000000000000000e+00 25 caster_back_right_2_joint 0 33 -1.89500000000000002e-01 -1.01999999999999993e-01 2.50000000000000014e-02 1.00000000000000000e+00 0.00000000000000000e+00 0.00000000000000000e+00 0.00000000000000000e+00 2.22044604925031308e-16 -1.00000000000000000e+00 0.00000000000000000e+00 1.00000000000000000e+00 2.22044604925031308e-16 4 8.85578399999999988e-02 0.00000000000000000e+00 0.00000000000000000e+00 0.00000000000000000e+00 1.07500000000000004e-05 0.00000000000000000e+00 1.54099999999999998e-05 0.00000000000000000e+00 0.00000000000000000e+00 1.07500000000000004e-05 24 caster_back_right_2_link 0 34 -1.89500000000000002e-01 -1.01999999999999993e-01 2.50000000000000014e-02 1.00000000000000000e+00 0.00000000000000000e+00 0.00000000000000000e+00 0.00000000000000000e+00 2.22044604925031308e-16 -1.00000000000000000e+00 0.00000000000000000e+00 1.00000000000000000e+00 2.22044604925031308e-16 8 0.00000000000000000e+00 0.00000000000000000e+00 0.00000000000000000e+00 0.00000000000000000e+00 0.00000000000000000e+00 0.00000000000000000e+00 0.00000000000000000e+00 0.00000000000000000e+00 0.00000000000000000e+00 0.00000000000000000e+00 25 caster_front_left_1_joint 0 3 1.69500000000000012e-01 1.01999999999999993e-01 6.50000000000000022e-02 1.00000000000000000e+00 0.00000000000000000e+00 0.00000000000000000e+00 0.00000000000000000e+00 1.00000000000000000e+00 0.00000000000000000e+00 0.00000000000000000e+00 0.00000000000000000e+00 1.00000000000000000e+00 4 5.14476099999999978e-02 -6.34599000000000014e-03 5.34700000000000014e-05 -2.03751900000000014e-02 1.51300000000000008e-05 -2.99999999999999973e-08 1.30900000000000000e-05 2.66999999999999985e-06 -4.99999999999999977e-08 1.19800000000000005e-05 24 caster_front_left_1_link 0 36 1.69500000000000012e-01 1.01999999999999993e-01 6.50000000000000022e-02 1.00000000000000000e+00 0.00000000000000000e+00 0.00000000000000000e+00 0.00000000000000000e+00 1.00000000000000000e+00 0.00000000000000000e+00 0.00000000000000000e+00 0.00000000000000000e+00 1.00000000000000000e+00 8 0.00000000000000000e+00 0.00000000000000000e+00 0.00000000000000000e+00 0.00000000000000000e+00 0.00000000000000000e+00 0.00000000000000000e+00 0.00000000000000000e+00 0.00000000000000000e+00 0.00000000000000000e+00 0.00000000000000000e+00 25 caster_front_left_2_joint 0 37 1.53500000000000025e-01 1.01999999999999993e-01 2.50000000000000014e-02 1.00000000000000000e+00 0.00000000000000000e+00 0.00000000000000000e+00 0.00000000000000000e+00 2.22044604925031308e-16 -1.00000000000000000e+00 0.00000000000000000e+00 1.00000000000000000e+00 2.22044604925031308e-16 4 8.85578399999999988e-02 0.00000000000000000e+00 0.00000000000000000e+00 0.00000000000000000e+00 1.07500000000000004e-05 0.00000000000000000e+00 1.54099999999999998e-05 0.00000000000000000e+00 0.00000000000000000e+00 1.07500000000000004e-05 24 caster_front_left_2_link 0 38 1.53500000000000025e-01 1.01999999999999993e-01 2.50000000000000014e-02 1.00000000000000000e+00 0.00000000000000000e+00 0.00000000000000000e+00 0.00000000000000000e+00 2.22044604925031308e-16 -1.00000000000000000e+00 0.00000000000000000e+00 1.00000000000000000e+00 2.22044604925031308e-16 8 0.00000000000000000e+00 0.00000000000000000e+00 0.00000000000000000e+00 0.00000000000000000e+00 0.00000000000000000e+00 0.00000000000000000e+00 0.00000000000000000e+00 0.00000000000000000e+00 0.00000000000000000e+00 0.00000000000000000e+00 26 caster_front_right_1_joint 0 3 1.69500000000000012e-01 -1.01999999999999993e-01 6.50000000000000022e-02 1.00000000000000000e+00 0.00000000000000000e+00 0.00000000000000000e+00 0.00000000000000000e+00 1.00000000000000000e+00 0.00000000000000000e+00 0.00000000000000000e+00 0.00000000000000000e+00 1.00000000000000000e+00 4 5.14476099999999978e-02 -6.34599000000000014e-03 5.34700000000000014e-05 -2.03751900000000014e-02 1.51300000000000008e-05 -2.99999999999999973e-08 1.30900000000000000e-05 2.66999999999999985e-06 -4.99999999999999977e-08 1.19800000000000005e-05 25 caster_front_right_1_link 0 40 1.69500000000000012e-01 -1.01999999999999993e-01 6.50000000000000022e-02 1.00000000000000000e+00 0.00000000000000000e+00 0.00000000000000000e+00 0.00000000000000000e+00 1.00000000000000000e+00 0.00000000000000000e+00 0.00000000000000000e+00 0.00000000000000000e+00 1.00000000000000000e+00 8 0.00000000000000000e+00 0.00000000000000000e+00 0.00000000000000000e+00 0.00000000000000000e+00 0.00000000000000000e+00 0.00000000000000000e+00 0.00000000000000000e+00 0.00000000000000000e+00 0.00000000000000000e+00 0.00000000000000000e+00 26 caster_front_right_2_joint 0 41 1.53500000000000025e-01 -1.01999999999999993e-01 2.50000000000000014e-02 1.00000000000000000e+00 0.00000000000000000e+00 0.00000000000000000e+00 0.00000000000000000e+00 2.22044604925031308e-16 -1.00000000000000000e+00 0.00000000000000000e+00 1.00000000000000000e+00 2.22044604925031308e-16 4 8.85578399999999988e-02 0.00000000000000000e+00 0.00000000000000000e+00 0.00000000000000000e+00 1.07500000000000004e-05 0.00000000000000000e+00 1.54099999999999998e-05 0.00000000000000000e+00 0.00000000000000000e+00 1.07500000000000004e-05 25 caster_front_right_2_link 0 42 1.53500000000000025e-01 -1.01999999999999993e-01 2.50000000000000014e-02 1.00000000000000000e+00 0.00000000000000000e+00 0.00000000000000000e+00 0.00000000000000000e+00 2.22044604925031308e-16 -1.00000000000000000e+00 0.00000000000000000e+00 1.00000000000000000e+00 2.22044604925031308e-16 8 0.00000000000000000e+00 0.00000000000000000e+00 0.00000000000000000e+00 0.00000000000000000e+00 0.00000000000000000e+00 0.00000000000000000e+00 0.00000000000000000e+00 0.00000000000000000e+00 0.00000000000000000e+00 0.00000000000000000e+00 21 suspension_left_joint 0 3 0.00000000000000000e+00 0.00000000000000000e+00 9.85000000000000042e-02 1.00000000000000000e+00 0.00000000000000000e+00 0.00000000000000000e+00 0.00000000000000000e+00 1.00000000000000000e+00 0.00000000000000000e+00 0.00000000000000000e+00 0.00000000000000000e+00 1.00000000000000000e+00 4 1.00000000000000000e+01 0.00000000000000000e+00 0.00000000000000000e+00 -2.00000000000000004e-02 1.00000000000000000e+00 0.00000000000000000e+00 1.00000000000000000e+00 0.00000000000000000e+00 0.00000000000000000e+00 1.00000000000000000e+00 20 suspension_left_link 0 44 0.00000000000000000e+00 0.00000000000000000e+00 9.85000000000000042e-02 1.00000000000000000e+00 0.00000000000000000e+00 0.00000000000000000e+00 0.00000000000000000e+00 1.00000000000000000e+00 0.00000000000000000e+00 0.00000000000000000e+00 0.00000000000000000e+00 1.00000000000000000e+00 8 0.00000000000000000e+00 0.00000000000000000e+00 0.00000000000000000e+00 0.00000000000000000e+00 0.00000000000000000e+00 0.00000000000000000e+00 0.00000000000000000e+00 0.00000000000000000e+00 0.00000000000000000e+00 0.00000000000000000e+00 16 wheel_left_joint 1 45 0.00000000000000000e+00 0.00000000000000000e+00 0.00000000000000000e+00 1.00000000000000000e+00 0.00000000000000000e+00 0.00000000000000000e+00 0.00000000000000000e+00 1.00000000000000000e+00 0.00000000000000000e+00 0.00000000000000000e+00 0.00000000000000000e+00 1.00000000000000000e+00 2 0.00000000000000000e+00 0.00000000000000000e+00 0.00000000000000000e+00 0.00000000000000000e+00 0.00000000000000000e+00 0.00000000000000000e+00 0.00000000000000000e+00 0.00000000000000000e+00 0.00000000000000000e+00 0.00000000000000000e+00 15 wheel_left_link 1 46 0.00000000000000000e+00 0.00000000000000000e+00 0.00000000000000000e+00 1.00000000000000000e+00 0.00000000000000000e+00 0.00000000000000000e+00 0.00000000000000000e+00 1.00000000000000000e+00 0.00000000000000000e+00 0.00000000000000000e+00 0.00000000000000000e+00 1.00000000000000000e+00 8 0.00000000000000000e+00 0.00000000000000000e+00 0.00000000000000000e+00 0.00000000000000000e+00 0.00000000000000000e+00 0.00000000000000000e+00 0.00000000000000000e+00 0.00000000000000000e+00 0.00000000000000000e+00 0.00000000000000000e+00 22 suspension_right_joint 0 3 0.00000000000000000e+00 0.00000000000000000e+00 9.85000000000000042e-02 1.00000000000000000e+00 0.00000000000000000e+00 0.00000000000000000e+00 0.00000000000000000e+00 1.00000000000000000e+00 0.00000000000000000e+00 0.00000000000000000e+00 0.00000000000000000e+00 1.00000000000000000e+00 4 1.00000000000000000e+01 0.00000000000000000e+00 0.00000000000000000e+00 -2.00000000000000004e-02 1.00000000000000000e+00 0.00000000000000000e+00 1.00000000000000000e+00 0.00000000000000000e+00 0.00000000000000000e+00 1.00000000000000000e+00 21 suspension_right_link 0 48 0.00000000000000000e+00 0.00000000000000000e+00 9.85000000000000042e-02 1.00000000000000000e+00 0.00000000000000000e+00 0.00000000000000000e+00 0.00000000000000000e+00 1.00000000000000000e+00 0.00000000000000000e+00 0.00000000000000000e+00 0.00000000000000000e+00 1.00000000000000000e+00 8 0.00000000000000000e+00 0.00000000000000000e+00 0.00000000000000000e+00 0.00000000000000000e+00 0.00000000000000000e+00 0.00000000000000000e+00 0.00000000000000000e+00 0.00000000000000000e+00 0.00000000000000000e+00 0.00000000000000000e+00 17 wheel_right_joint 2 49 0.00000000000000000e+00 0.00000000000000000e+00 0.00000000000000000e+00 1.00000000000000000e+00 0.00000000000000000e+00 0.00000000000000000e+00 0.00000000000000000e+00 1.00000000000000000e+00 0.00000000000000000e+00 0.00000000000000000e+00 0.00000000000000000e+00 1.00000000000000000e+00 2 0.00000000000000000e+00 0.00000000000000000e+00 0.00000000000000000e+00 0.00000000000000000e+00 0.00000000000000000e+00 0.00000000000000000e+00 0.00000000000000000e+00 0.00000000000000000e+00 0.00000000000000000e+00 0.00000000000000000e+00 16 wheel_right_link 2 50 0.00000000000000000e+00 0.00000000000000000e+00 0.00000000000000000e+00 1.00000000000000000e+00 0.00000000000000000e+00 0.00000000000000000e+00 0.00000000000000000e+00 1.00000000000000000e+00 0.00000000000000000e+00 0.00000000000000000e+00 0.00000000000000000e+00 1.00000000000000000e+00 8 0.00000000000000000e+00 0.00000000000000000e+00 0.00000000000000000e+00 0.00000000000000000e+00 0.00000000000000000e+00 0.00000000000000000e+00 0.00000000000000000e+00 0.00000000000000000e+00 0.00000000000000000e+00 0.00000000000000000e+00 24 torso_fixed_column_joint 0 3 -6.19999999999999996e-02 0.00000000000000000e+00 2.91499999999999981e-01 1.00000000000000000e+00 0.00000000000000000e+00 0.00000000000000000e+00 0.00000000000000000e+00 1.00000000000000000e+00 0.00000000000000000e+00 0.00000000000000000e+00 0.00000000000000000e+00 1.00000000000000000e+00 4 1.00000000000000002e-02 0.00000000000000000e+00 0.00000000000000000e+00 0.00000000000000000e+00 9.99999999999999955e-07 0.00000000000000000e+00 9.99999999999999955e-07 0.00000000000000000e+00 0.00000000000000000e+00 9.99999999999999955e-07 23 torso_fixed_column_link 0 52 -6.19999999999999996e-02 0.00000000000000000e+00 2.91499999999999981e-01 1.00000000000000000e+00 0.00000000000000000e+00 0.00000000000000000e+00 0.00000000000000000e+00 1.00000000000000000e+00 0.00000000000000000e+00 0.00000000000000000e+00 0.00000000000000000e+00 1.00000000000000000e+00 8 0.00000000000000000e+00 0.00000000000000000e+00 0.00000000000000000e+00 0.00000000000000000e+00 0.00000000000000000e+00 0.00000000000000000e+00 0.00000000000000000e+00 0.00000000000000000e+00 0.00000000000000000e+00 0.00000000000000000e+00 17 torso_fixed_joint 0 3 -6.19999999999999996e-02 0.00000000000000000e+00 2.91499999999999981e-01 1.00000000000000000e+00 0.00000000000000000e+00 0.00000000000000000e+00 0.00000000000000000e+00 1.00000000000000000e+00 0.00000000000000000e+00 0.00000000000000000e+00 0.00000000000000000e+00 1.00000000000000000e+00 4 1.40136000000000003e+01 2.43500000000000001e-02 -4.64000000000000003e-03 1.59000000000000002e-01 3.83411000000000002e-01 3.64000000000000011e-04 4.05772999999999995e-01 -2.43890000000000010e-02 -7.82000000000000034e-04 7.69979999999999970e-02 16 torso_fixed_link 0 54 -6.19999999999999996e-02 0.00000000000000000e+00 2.91499999999999981e-01 1.00000000000000000e+00 0.00000000000000000e+00 0.00000000000000000e+00 0.00000000000000000e+00 1.00000000000000000e+00 0.00000000000000000e+00 0.00000000000000000e+00 0.00000000000000000e+00 1.00000000000000000e+00 8 0.00000000000000000e+00 0.00000000000000000e+00 0.00000000000000000e+00 0.00000000000000000e+00 0.00000000000000000e+00 0.00000000000000000e+00 0.00000000000000000e+00 0.00000000000000000e+00 0.00000000000000000e+00 0.00000000000000000e+00 16 torso_lift_joint 3 55 0.00000000000000000e+00 0.00000000000000000e+00 0.00000000000000000e+00 1.00000000000000000e+00 0.00000000000000000e+00 0.00000000000000000e+00 0.00000000000000000e+00 1.00000000000000000e+00 0.00000000000000000e+00 0.00000000000000000e+00 0.00000000000000000e+00 1.00000000000000000e+00 2 0.00000000000000000e+00 0.00000000000000000e+00 0.00000000000000000e+00 0.00000000000000000e+00 0.00000000000000000e+00 0.00000000000000000e+00 0.00000000000000000e+00 0.00000000000000000e+00 0.00000000000000000e+00 0.00000000000000000e+00 15 torso_lift_link 3 56 0.00000000000000000e+00 0.00000000000000000e+00 0.00000000000000000e+00 1.00000000000000000e+00 0.00000000000000000e+00 0.00000000000000000e+00 0.00000000000000000e+00 1.00000000000000000e+00 0.00000000000000000e+00 0.00000000000000000e+00 0.00000000000000000e+00 1.00000000000000000e+00 8 0.00000000000000000e+00 0.00000000000000000e+00 0.00000000000000000e+00 0.00000000000000000e+00 0.00000000000000000e+00 0.00000000000000000e+00 0.00000000000000000e+00 0.00000000000000000e+00 0.00000000000000000e+00 0.00000000000000000e+00 11 arm_1_joint 4 57 0.00000000000000000e+00 0.00000000000000000e+00 0.00000000000000000e+00 1.00000000000000000e+00 0.00000000000000000e+00 0.00000000000000000e+00 0.00000000000000000e+00 1.00000000000000000e+00 0.00000000000000000e+00 0.00000000000000000e+00 0.00000000000000000e+00 1.00000000000000000e+00 2 0.00000000000000000e+00 0.00000000000000000e+00 0.00000000000000000e+00 0.00000000000000000e+00 0.00000000000000000e+00 0.00000000000000000e+00 0.00000000000000000e+00 0.00000000000000000e+00 0.00000000000000000e+00 0.00000000000000000e+00 10 arm_1_link 4 58 0.00000000000000000e+00 0.00000000000000000e+00 0.00000000000000000e+00 1.00000000000000000e+00 0.00000000000000000e+00 0.00000000000000000e+00 0.00000000000000000e+00 1.00000000000000000e+00 0.00000000000000000e+00 0.00000000000000000e+00 0.00000000000000000e+00 1.00000000000000000e+00 8 0.00000000000000000e+00 0.00000000000000000e+00 0.00000000000000000e+00 0.00000000000000000e+00 0.00000000000000000e+00 0.00000000000000000e+00 0.00000000000000000e+00 0.00000000000000000e+00 0.00000000000000000e+00 0.00000000000000000e+00 11 arm_2_joint 5 59 0.00000000000000000e+00 0.00000000000000000e+00 0.00000000000000000e+00 1.00000000000000000e+00 0.00000000000000000e+00 0.00000000000000000e+00 0.00000000000000000e+00 1.00000000000000000e+00 0.00000000000000000e+00 0.00000000000000000e+00 0.00000000000000000e+00 1.00000000000000000e+00 2 0.00000000000000000e+00 0.00000000000000000e+00 0.00000000000000000e+00 0.00000000000000000e+00 0.00000000000000000e+00 0.00000000000000000e+00 0.00000000000000000e+00 0.00000000000000000e+00 0.00000000000000000e+00 0.00000000000000000e+00 10 arm_2_link 5 60 0.00000000000000000e+00 0.00000000000000000e+00 0.00000000000000000e+00 1.00000000000000000e+00 0.00000000000000000e+00 0.00000000000000000e+00 0.00000000000000000e+00 1.00000000000000000e+00 0.00000000000000000e+00 0.00000000000000000e+00 0.00000000000000000e+00 1.00000000000000000e+00 8 0.00000000000000000e+00 0.00000000000000000e+00 0.00000000000000000e+00 0.00000000000000000e+00 0.00000000000000000e+00 0.00000000000000000e+00 0.00000000000000000e+00 0.00000000000000000e+00 0.00000000000000000e+00 0.00000000000000000e+00 11 arm_3_joint 6 61 0.00000000000000000e+00 0.00000000000000000e+00 0.00000000000000000e+00 1.00000000000000000e+00 0.00000000000000000e+00 0.00000000000000000e+00 0.00000000000000000e+00 1.00000000000000000e+00 0.00000000000000000e+00 0.00000000000000000e+00 0.00000000000000000e+00 1.00000000000000000e+00 2 0.00000000000000000e+00 0.00000000000000000e+00 0.00000000000000000e+00 0.00000000000000000e+00 0.00000000000000000e+00 0.00000000000000000e+00 0.00000000000000000e+00 0.00000000000000000e+00 0.00000000000000000e+00 0.00000000000000000e+00 10 arm_3_link 6 62 0.00000000000000000e+00 0.00000000000000000e+00 0.00000000000000000e+00 1.00000000000000000e+00 0.00000000000000000e+00 0.00000000000000000e+00 0.00000000000000000e+00 1.00000000000000000e+00 0.00000000000000000e+00 0.00000000000000000e+00 0.00000000000000000e+00 1.00000000000000000e+00 8 0.00000000000000000e+00 0.00000000000000000e+00 0.00000000000000000e+00 0.00000000000000000e+00 0.00000000000000000e+00 0.00000000000000000e+00 0.00000000000000000e+00 0.00000000000000000e+00 0.00000000000000000e+00 0.00000000000000000e+00 11 arm_4_joint 7 63 0.00000000000000000e+00 0.00000000000000000e+00 0.00000000000000000e+00 1.00000000000000000e+00 0.00000000000000000e+00 0.00000000000000000e+00 0.00000000000000000e+00 1.00000000000000000e+00 0.00000000000000000e+00 0.00000000000000000e+00 0.00000000000000000e+00 1.00000000000000000e+00 2 0.00000000000000000e+00 0.00000000000000000e+00 0.00000000000000000e+00 0.00000000000000000e+00 0.00000000000000000e+00 0.00000000000000000e+00 0.00000000000000000e+00 0.00000000000000000e+00 0.00000000000000000e+00 0.00000000000000000e+00 10 arm_4_link 7 64 0.00000000000000000e+00 0.00000000000000000e+00 0.00000000000000000e+00 1.00000000000000000e+00 0.00000000000000000e+00 0.00000000000000000e+00 0.00000000000000000e+00 1.00000000000000000e+00 0.00000000000000000e+00 0.00000000000000000e+00 0.00000000000000000e+00 1.00000000000000000e+00 8 0.00000000000000000e+00 0.00000000000000000e+00 0.00000000000000000e+00 0.00000000000000000e+00 0.00000000000000000e+00 0.00000000000000000e+00 0.00000000000000000e+00 0.00000000000000000e+00 0.00000000000000000e+00 0.00000000000000000e+00 11 arm_5_joint 8 65 0.00000000000000000e+00 0.00000000000000000e+00 0.00000000000000000e+00 1.00000000000000000e+00 0.00000000000000000e+00 0.00000000000000000e+00 0.00000000000000000e+00 1.00000000000000000e+00 0.00000000000000000e+00 0.00000000000000000e+00 0.00000000000000000e+00 1.00000000000000000e+00 2 0.00000000000000000e+00 0.00000000000000000e+00 0.00000000000000000e+00 0.00000000000000000e+00 0.00000000000000000e+00 0.00000000000000000e+00 0.00000000000000000e+00 0.00000000000000000e+00 0.00000000000000000e+00 0.00000000000000000e+00 10 arm_5_link 8 66 0.00000000000000000e+00 0.00000000000000000e+00 0.00000000000000000e+00 1.00000000000000000e+00 0.00000000000000000e+00 0.00000000000000000e+00 0.00000000000000000e+00 1.00000000000000000e+00 0.00000000000000000e+00 0.00000000000000000e+00 0.00000000000000000e+00 1.00000000000000000e+00 8 0.00000000000000000e+00 0.00000000000000000e+00 0.00000000000000000e+00 0.00000000000000000e+00 0.00000000000000000e+00 0.00000000000000000e+00 0.00000000000000000e+00 0.00000000000000000e+00 0.00000000000000000e+00 0.00000000000000000e+00 11 arm_6_joint 9 67 0.00000000000000000e+00 0.00000000000000000e+00 0.00000000000000000e+00 1.00000000000000000e+00 0.00000000000000000e+00 0.00000000000000000e+00 0.00000000000000000e+00 1.00000000000000000e+00 0.00000000000000000e+00 0.00000000000000000e+00 0.00000000000000000e+00 1.00000000000000000e+00 2 0.00000000000000000e+00 0.00000000000000000e+00 0.00000000000000000e+00 0.00000000000000000e+00 0.00000000000000000e+00 0.00000000000000000e+00 0.00000000000000000e+00 0.00000000000000000e+00 0.00000000000000000e+00 0.00000000000000000e+00 10 arm_6_link 9 68 0.00000000000000000e+00 0.00000000000000000e+00 0.00000000000000000e+00 1.00000000000000000e+00 0.00000000000000000e+00 0.00000000000000000e+00 0.00000000000000000e+00 1.00000000000000000e+00 0.00000000000000000e+00 0.00000000000000000e+00 0.00000000000000000e+00 1.00000000000000000e+00 8 0.00000000000000000e+00 0.00000000000000000e+00 0.00000000000000000e+00 0.00000000000000000e+00 0.00000000000000000e+00 0.00000000000000000e+00 0.00000000000000000e+00 0.00000000000000000e+00 0.00000000000000000e+00 0.00000000000000000e+00 11 arm_7_joint 10 69 0.00000000000000000e+00 0.00000000000000000e+00 0.00000000000000000e+00 1.00000000000000000e+00 0.00000000000000000e+00 0.00000000000000000e+00 0.00000000000000000e+00 1.00000000000000000e+00 0.00000000000000000e+00 0.00000000000000000e+00 0.00000000000000000e+00 1.00000000000000000e+00 2 0.00000000000000000e+00 0.00000000000000000e+00 0.00000000000000000e+00 0.00000000000000000e+00 0.00000000000000000e+00 0.00000000000000000e+00 0.00000000000000000e+00 0.00000000000000000e+00 0.00000000000000000e+00 0.00000000000000000e+00 10 arm_7_link 10 70 0.00000000000000000e+00 0.00000000000000000e+00 0.00000000000000000e+00 1.00000000000000000e+00 0.00000000000000000e+00 0.00000000000000000e+00 0.00000000000000000e+00 1.00000000000000000e+00 0.00000000000000000e+00 0.00000000000000000e+00 0.00000000000000000e+00 1.00000000000000000e+00 8 0.00000000000000000e+00 0.00000000000000000e+00 0.00000000000000000e+00 0.00000000000000000e+00 0.00000000000000000e+00 0.00000000000000000e+00 0.00000000000000000e+00 0.00000000000000000e+00 0.00000000000000000e+00 0.00000000000000000e+00 14 arm_tool_joint 10 71 0.00000000000000000e+00 0.00000000000000000e+00 5.18749999999999975e-02 -4.44089209850062616e-16 0.00000000000000000e+00 1.00000000000000022e+00 1.00000000000000022e+00 -6.66133814775093924e-16 2.22044604925031308e-16 4.44089209850062616e-16 1.00000000000000022e+00 -2.22044604925031308e-16 4 1.00000000000000006e-01 0.00000000000000000e+00 0.00000000000000000e+00 0.00000000000000000e+00 0.00000000000000000e+00 0.00000000000000000e+00 0.00000000000000000e+00 0.00000000000000000e+00 0.00000000000000000e+00 0.00000000000000000e+00 13 arm_tool_link 10 72 0.00000000000000000e+00 0.00000000000000000e+00 5.18749999999999975e-02 -4.44089209850062616e-16 0.00000000000000000e+00 1.00000000000000022e+00 1.00000000000000022e+00 -6.66133814775093924e-16 2.22044604925031308e-16 4.44089209850062616e-16 1.00000000000000022e+00 -2.22044604925031308e-16 8 0.00000000000000000e+00 0.00000000000000000e+00 0.00000000000000000e+00 0.00000000000000000e+00 0.00000000000000000e+00 0.00000000000000000e+00 0.00000000000000000e+00 0.00000000000000000e+00 0.00000000000000000e+00 0.00000000000000000e+00 14 wrist_ft_joint 10 73 -4.16333634234433687e-18 0.00000000000000000e+00 6.12499999999999989e-02 1.00000000000000022e+00 -6.66133814775093924e-16 4.44089209850062616e-16 4.44089209850062715e-16 1.00000000000000022e+00 -4.44089209850062616e-16 -6.66133814775093826e-16 2.22044604925031505e-16 1.00000000000000022e+00 4 9.50000000000000011e-02 0.00000000000000000e+00 0.00000000000000000e+00 0.00000000000000000e+00 1.59999999999999993e-05 -9.99999999999999955e-07 1.50000000000000004e-05 0.00000000000000000e+00 0.00000000000000000e+00 2.69999999999999990e-05 13 wrist_ft_link 10 74 -4.16333634234433687e-18 0.00000000000000000e+00 6.12499999999999989e-02 1.00000000000000022e+00 -6.66133814775093924e-16 4.44089209850062616e-16 4.44089209850062715e-16 1.00000000000000022e+00 -4.44089209850062616e-16 -6.66133814775093826e-16 2.22044604925031505e-16 1.00000000000000022e+00 8 0.00000000000000000e+00 0.00000000000000000e+00 0.00000000000000000e+00 0.00000000000000000e+00 0.00000000000000000e+00 0.00000000000000000e+00 0.00000000000000000e+00 0.00000000000000000e+00 0.00000000000000000e+00 0.00000000000000000e+00 16 wrist_tool_joint 10 75 -1.16240350678253876e-17 2.48689957516035294e-18 7.24500000000000005e-02 -4.44089209850062468e-16 2.22044604925031357e-16 1.00000000000000022e+00 1.00000000000000022e+00 -4.44089209850062616e-16 2.22044604925031160e-16 2.22044604925031357e-16 1.00000000000000022e+00 -4.44089209850062715e-16 4 1.00000000000000006e-01 0.00000000000000000e+00 0.00000000000000000e+00 0.00000000000000000e+00 0.00000000000000000e+00 0.00000000000000000e+00 0.00000000000000000e+00 0.00000000000000000e+00 0.00000000000000000e+00 0.00000000000000000e+00 18 wrist_ft_tool_link 10 76 -1.16240350678253876e-17 2.48689957516035294e-18 7.24500000000000005e-02 -4.44089209850062468e-16 2.22044604925031357e-16 1.00000000000000022e+00 1.00000000000000022e+00 -4.44089209850062616e-16 2.22044604925031160e-16 2.22044604925031357e-16 1.00000000000000022e+00 -4.44089209850062715e-16 8 0.00000000000000000e+00 0.00000000000000000e+00 0.00000000000000000e+00 0.00000000000000000e+00 0.00000000000000000e+00 0.00000000000000000e+00 0.00000000000000000e+00 0.00000000000000000e+00 0.00000000000000000e+00 0.00000000000000000e+00 13 gripper_joint 10 77 -1.16240350678253876e-17 2.48689957516035294e-18 7.24500000000000005e-02 -3.79053850793408849e-16 -1.00000000000000044e+00 2.22044604925031456e-16 -1.00000000000000067e+00 6.01098455718440404e-16 9.19738868117238239e-17 1.30070718113307386e-16 -4.44089209850062616e-16 -1.00000000000000044e+00 4 6.02659999999999973e-01 -2.93999999999999991e-04 2.91000000000000026e-04 -3.30859999999999974e-02 6.93000000000000040e-04 4.50000000000000028e-05 1.02399999999999995e-03 0.00000000000000000e+00 0.00000000000000000e+00 6.71999999999999963e-04 12 gripper_link 10 78 -1.16240350678253876e-17 2.48689957516035294e-18 7.24500000000000005e-02 -3.79053850793408849e-16 -1.00000000000000044e+00 2.22044604925031456e-16 -1.00000000000000067e+00 6.01098455718440404e-16 9.19738868117238239e-17 1.30070718113307386e-16 -4.44089209850062616e-16 -1.00000000000000044e+00 8 0.00000000000000000e+00 0.00000000000000000e+00 0.00000000000000000e+00 0.00000000000000000e+00 0.00000000000000000e+00 0.00000000000000000e+00 0.00000000000000000e+00 0.00000000000000000e+00 0.00000000000000000e+00 0.00000000000000000e+00 28 gripper_grasping_frame_joint 10 79 -2.72325212414222745e-17 5.57776047571678599e-17 1.92450000000000065e-01 -1.30069325769890610e-16 3.67320510408220172e-06 9.99999999993254285e-01 3.67320510401716780e-06 9.99999999986508126e-01 -3.67320510358260178e-06 -9.99999999993254507e-01 3.67320510396165538e-06 -1.34922264005934125e-11 4 1.00000000000000005e-04 0.00000000000000000e+00 0.00000000000000000e+00 0.00000000000000000e+00 1.00000000000000008e-05 0.00000000000000000e+00 1.00000000000000008e-05 0.00000000000000000e+00 0.00000000000000000e+00 1.00000000000000008e-05 22 gripper_grasping_frame 10 80 -2.72325212414222745e-17 5.57776047571678599e-17 1.92450000000000065e-01 -1.30069325769890610e-16 3.67320510408220172e-06 9.99999999993254285e-01 3.67320510401716780e-06 9.99999999986508126e-01 -3.67320510358260178e-06 -9.99999999993254507e-01 3.67320510396165538e-06 -1.34922264005934125e-11 8 0.00000000000000000e+00 0.00000000000000000e+00 0.00000000000000000e+00 0.00000000000000000e+00 0.00000000000000000e+00 0.00000000000000000e+00 0.00000000000000000e+00 0.00000000000000000e+00 0.00000000000000000e+00 0.00000000000000000e+00 25 gripper_left_finger_joint 11 79 0.00000000000000000e+00 0.00000000000000000e+00 0.00000000000000000e+00 1.00000000000000000e+00 0.00000000000000000e+00 0.00000000000000000e+00 0.00000000000000000e+00 1.00000000000000000e+00 0.00000000000000000e+00 0.00000000000000000e+00 0.00000000000000000e+00 1.00000000000000000e+00 2 0.00000000000000000e+00 0.00000000000000000e+00 0.00000000000000000e+00 0.00000000000000000e+00 0.00000000000000000e+00 0.00000000000000000e+00 0.00000000000000000e+00 0.00000000000000000e+00 0.00000000000000000e+00 0.00000000000000000e+00 24 gripper_left_finger_link 11 82 0.00000000000000000e+00 0.00000000000000000e+00 0.00000000000000000e+00 1.00000000000000000e+00 0.00000000000000000e+00 0.00000000000000000e+00 0.00000000000000000e+00 1.00000000000000000e+00 0.00000000000000000e+00 0.00000000000000000e+00 0.00000000000000000e+00 1.00000000000000000e+00 8 0.00000000000000000e+00 0.00000000000000000e+00 0.00000000000000000e+00 0.00000000000000000e+00 0.00000000000000000e+00 0.00000000000000000e+00 0.00000000000000000e+00 0.00000000000000000e+00 0.00000000000000000e+00 0.00000000000000000e+00 26 gripper_right_finger_joint 12 79 0.00000000000000000e+00 0.00000000000000000e+00 0.00000000000000000e+00 1.00000000000000000e+00 0.00000000000000000e+00 0.00000000000000000e+00 0.00000000000000000e+00 1.00000000000000000e+00 0.00000000000000000e+00 0.00000000000000000e+00 0.00000000000000000e+00 1.00000000000000000e+00 2 0.00000000000000000e+00 0.00000000000000000e+00 0.00000000000000000e+00 0.00000000000000000e+00 0.00000000000000000e+00 0.00000000000000000e+00 0.00000000000000000e+00 0.00000000000000000e+00 0.00000000000000000e+00 0.00000000000000000e+00 25 gripper_right_finger_link 12 84 0.00000000000000000e+00 0.00000000000000000e+00 0.00000000000000000e+00 1.00000000000000000e+00 0.00000000000000000e+00 0.00000000000000000e+00 0.00000000000000000e+00 1.00000000000000000e+00 0.00000000000000000e+00 0.00000000000000000e+00 0.00000000000000000e+00 1.00000000000000000e+00 8 0.00000000000000000e+00 0.00000000000000000e+00 0.00000000000000000e+00 0.00000000000000000e+00 0.00000000000000000e+00 0.00000000000000000e+00 0.00000000000000000e+00 0.00000000000000000e+00 0.00000000000000000e+00 0.00000000000000000e+00 18 gripper_tool_joint 10 77 -1.16240350678253876e-17 2.48689957516035294e-18 7.24500000000000005e-02 -3.79053850793408849e-16 -1.00000000000000044e+00 2.22044604925031456e-16 -1.00000000000000067e+00 6.01098455718440404e-16 9.19738868117238239e-17 1.30070718113307386e-16 -4.44089209850062616e-16 -1.00000000000000044e+00 4 1.00000000000000005e-04 0.00000000000000000e+00 0.00000000000000000e+00 0.00000000000000000e+00 1.00000000000000008e-05 0.00000000000000000e+00 1.00000000000000008e-05 0.00000000000000000e+00 0.00000000000000000e+00 1.00000000000000008e-05 17 gripper_tool_link 10 86 -1.16240350678253876e-17 2.48689957516035294e-18 7.24500000000000005e-02 -3.79053850793408849e-16 -1.00000000000000044e+00 2.22044604925031456e-16 -1.00000000000000067e+00 6.01098455718440404e-16 9.19738868117238239e-17 1.30070718113307386e-16 -4.44089209850062616e-16 -1.00000000000000044e+00 8 0.00000000000000000e+00 0.00000000000000000e+00 0.00000000000000000e+00 0.00000000000000000e+00 0.00000000000000000e+00 0.00000000000000000e+00 0.00000000000000000e+00 0.00000000000000000e+00 0.00000000000000000e+00 0.00000000000000000e+00 12 head_1_joint 13 57 0.00000000000000000e+00 0.00000000000000000e+00 0.00000000000000000e+00 1.00000000000000000e+00 0.00000000000000000e+00 0.00000000000000000e+00 0.00000000000000000e+00 1.00000000000000000e+00 0.00000000000000000e+00 0.00000000000000000e+00 0.00000000000000000e+00 1.00000000000000000e+00 2 0.00000000000000000e+00 0.00000000000000000e+00 0.00000000000000000e+00 0.00000000000000000e+00 0.00000000000000000e+00 0.00000000000000000e+00 0.00000000000000000e+00 0.00000000000000000e+00 0.00000000000000000e+00 0.00000000000000000e+00 11 head_1_link 13 88 0.00000000000000000e+00 0.00000000000000000e+00 0.00000000000000000e+00 1.00000000000000000e+00 0.00000000000000000e+00 0.00000000000000000e+00 0.00000000000000000e+00 1.00000000000000000e+00 0.00000000000000000e+00 0.00000000000000000e+00 0.00000000000000000e+00 1.00000000000000000e+00 8 0.00000000000000000e+00 0.00000000000000000e+00 0.00000000000000000e+00 0.00000000000000000e+00 0.00000000000000000e+00 0.00000000000000000e+00 0.00000000000000000e+00 0.00000000000000000e+00 0.00000000000000000e+00 0.00000000000000000e+00 12 head_2_joint 14 89 0.00000000000000000e+00 0.00000000000000000e+00 0.00000000000000000e+00 1.00000000000000000e+00 0.00000000000000000e+00 0.00000000000000000e+00 0.00000000000000000e+00 1.00000000000000000e+00 0.00000000000000000e+00 0.00000000000000000e+00 0.00000000000000000e+00 1.00000000000000000e+00 2 0.00000000000000000e+00 0.00000000000000000e+00 0.00000000000000000e+00 0.00000000000000000e+00 0.00000000000000000e+00 0.00000000000000000e+00 0.00000000000000000e+00 0.00000000000000000e+00 0.00000000000000000e+00 0.00000000000000000e+00 11 head_2_link 14 90 0.00000000000000000e+00 0.00000000000000000e+00 0.00000000000000000e+00 1.00000000000000000e+00 0.00000000000000000e+00 0.00000000000000000e+00 0.00000000000000000e+00 1.00000000000000000e+00 0.00000000000000000e+00 0.00000000000000000e+00 0.00000000000000000e+00 1.00000000000000000e+00 8 0.00000000000000000e+00 0.00000000000000000e+00 0.00000000000000000e+00 0.00000000000000000e+00 0.00000000000000000e+00 0.00000000000000000e+00 0.00000000000000000e+00 0.00000000000000000e+00 0.00000000000000000e+00 0.00000000000000000e+00 23 head_front_camera_joint 14 91 9.08000000000000057e-02 8.00000000000000017e-02 0.00000000000000000e+00 1.00000000000000000e+00 0.00000000000000000e+00 0.00000000000000000e+00 0.00000000000000000e+00 2.22044604925031308e-16 -1.00000000000000000e+00 0.00000000000000000e+00 1.00000000000000000e+00 2.22044604925031308e-16 4 2.19700000000000006e-01 -9.36000000000000026e-03 -3.00000000000000008e-05 -2.72999999999999979e-03 4.29246999999999958e-06 0.00000000000000000e+00 8.02700000000000034e-08 2.56500000000000014e-08 0.00000000000000000e+00 4.27338999999999975e-06 22 head_front_camera_link 14 92 9.08000000000000057e-02 8.00000000000000017e-02 0.00000000000000000e+00 1.00000000000000000e+00 0.00000000000000000e+00 0.00000000000000000e+00 0.00000000000000000e+00 2.22044604925031308e-16 -1.00000000000000000e+00 0.00000000000000000e+00 1.00000000000000000e+00 2.22044604925031308e-16 8 0.00000000000000000e+00 0.00000000000000000e+00 0.00000000000000000e+00 0.00000000000000000e+00 0.00000000000000000e+00 0.00000000000000000e+00 0.00000000000000000e+00 0.00000000000000000e+00 0.00000000000000000e+00 0.00000000000000000e+00 31 head_front_camera_optical_joint 14 93 9.08000000000000057e-02 8.00000000000000017e-02 0.00000000000000000e+00 2.22044604925031308e-16 -2.22044604925031308e-16 1.00000000000000000e+00 2.22044604925031308e-16 -1.00000000000000000e+00 -2.22044604925031308e-16 1.00000000000000000e+00 2.22044604925031357e-16 -2.22044604925031259e-16 4 1.00000000000000002e-03 0.00000000000000000e+00 0.00000000000000000e+00 0.00000000000000000e+00 1.00000000000000008e-05 0.00000000000000000e+00 1.00000000000000008e-05 0.00000000000000000e+00 0.00000000000000000e+00 1.00000000000000008e-05 31 head_front_camera_optical_frame 14 94 9.08000000000000057e-02 8.00000000000000017e-02 0.00000000000000000e+00 2.22044604925031308e-16 -2.22044604925031308e-16 1.00000000000000000e+00 2.22044604925031308e-16 -1.00000000000000000e+00 -2.22044604925031308e-16 1.00000000000000000e+00 2.22044604925031357e-16 -2.22044604925031259e-16 8 0.00000000000000000e+00 0.00000000000000000e+00 0.00000000000000000e+00 0.00000000000000000e+00 0.00000000000000000e+00 0.00000000000000000e+00 0.00000000000000000e+00 0.00000000000000000e+00 0.00000000000000000e+00 0.00000000000000000e+00 34 head_front_camera_orbbec_aux_joint 14 93 9.08000000000000057e-02 8.00000000000000017e-02 0.00000000000000000e+00 1.00000000000000000e+00 0.00000000000000000e+00 0.00000000000000000e+00 0.00000000000000000e+00 2.22044604925031308e-16 -1.00000000000000000e+00 0.00000000000000000e+00 1.00000000000000000e+00 2.22044604925031308e-16 4 1.00000000000000002e-03 0.00000000000000000e+00 0.00000000000000000e+00 0.00000000000000000e+00 1.00000000000000008e-05 0.00000000000000000e+00 1.00000000000000008e-05 0.00000000000000000e+00 0.00000000000000000e+00 1.00000000000000008e-05 40 head_front_camera_orbbec_aux_joint_frame 14 96 9.08000000000000057e-02 8.00000000000000017e-02 0.00000000000000000e+00 1.00000000000000000e+00 0.00000000000000000e+00 0.00000000000000000e+00 0.00000000000000000e+00 2.22044604925031308e-16 -1.00000000000000000e+00 0.00000000000000000e+00 1.00000000000000000e+00 2.22044604925031308e-16 8 0.00000000000000000e+00 0.00000000000000000e+00 0.00000000000000000e+00 0.00000000000000000e+00 0.00000000000000000e+00 0.00000000000000000e+00 0.00000000000000000e+00 0.00000000000000000e+00 0.00000000000000000e+00 0.00000000000000000e+00 27 head_front_camera_rgb_joint 14 97 9.08000000000000057e-02 8.00000000000000017e-02 -2.19999999999999987e-02 1.00000000000000000e+00 0.00000000000000000e+00 0.00000000000000000e+00 0.00000000000000000e+00 2.22044604925031308e-16 -1.00000000000000000e+00 0.00000000000000000e+00 1.00000000000000000e+00 2.22044604925031308e-16 4 1.00000000000000002e-03 0.00000000000000000e+00 0.00000000000000000e+00 0.00000000000000000e+00 1.00000000000000008e-05 0.00000000000000000e+00 1.00000000000000008e-05 0.00000000000000000e+00 0.00000000000000000e+00 1.00000000000000008e-05 27 head_front_camera_rgb_frame 14 98 9.08000000000000057e-02 8.00000000000000017e-02 -2.19999999999999987e-02 1.00000000000000000e+00 0.00000000000000000e+00 0.00000000000000000e+00 0.00000000000000000e+00 2.22044604925031308e-16 -1.00000000000000000e+00 0.00000000000000000e+00 1.00000000000000000e+00 2.22044604925031308e-16 8 0.00000000000000000e+00 0.00000000000000000e+00 0.00000000000000000e+00 0.00000000000000000e+00 0.00000000000000000e+00 0.00000000000000000e+00 0.00000000000000000e+00 0.00000000000000000e+00 0.00000000000000000e+00 0.00000000000000000e+00 29 head_front_camera_depth_joint 14 99 9.08000000000000057e-02 8.00000000000000017e-02 -4.70000000000000001e-02 1.00000000000000000e+00 0.00000000000000000e+00 0.00000000000000000e+00 0.00000000000000000e+00 2.22044604925031308e-16 -1.00000000000000000e+00 0.00000000000000000e+00 1.00000000000000000e+00 2.22044604925031308e-16 4 1.00000000000000002e-03 0.00000000000000000e+00 0.00000000000000000e+00 0.00000000000000000e+00 1.00000000000000008e-05 0.00000000000000000e+00 1.00000000000000008e-05 0.00000000000000000e+00 0.00000000000000000e+00 1.00000000000000008e-05 29 head_front_camera_depth_frame 14 100 9.08000000000000057e-02 8.00000000000000017e-02 -4.70000000000000001e-02 1.00000000000000000e+00 0.00000000000000000e+00 0.00000000000000000e+00 0.00000000000000000e+00 2.22044604925031308e-16 -1.00000000000000000e+00 0.00000000000000000e+00 1.00000000000000000e+00 2.22044604925031308e-16 8 0.00000000000000000e+00 0.00000000000000000e+00 0.00000000000000000e+00 0.00000000000000000e+00 0.00000000000000000e+00 0.00000000000000000e+00 0.00000000000000000e+00 0.00000000000000000e+00 0.00000000000000000e+00 0.00000000000000000e+00 37 head_front_camera_depth_optical_joint 14 101 9.08000000000000057e-02 8.00000000000000017e-02 -4.70000000000000001e-02 2.22044604925031308e-16 -2.22044604925031308e-16 1.00000000000000000e+00 2.22044604925031308e-16 -1.00000000000000000e+00 -2.22044604925031308e-16 1.00000000000000000e+00 2.22044604925031357e-16 -2.22044604925031259e-16 4 1.00000000000000002e-03 0.00000000000000000e+00 0.00000000000000000e+00 0.00000000000000000e+00 1.00000000000000008e-05 0.00000000000000000e+00 1.00000000000000008e-05 0.00000000000000000e+00 0.00000000000000000e+00 1.00000000000000008e-05 37 head_front_camera_depth_optical_frame 14 102 9.08000000000000057e-02 8.00000000000000017e-02 -4.70000000000000001e-02 2.22044604925031308e-16 -2.22044604925031308e-16 1.00000000000000000e+00 2.22044604925031308e-16 -1.00000000000000000e+00 -2.22044604925031308e-16 1.00000000000000000e+00 2.22044604925031357e-16 -2.22044604925031259e-16 8 0.00000000000000000e+00 0.00000000000000000e+00 0.00000000000000000e+00 0.00000000000000000e+00 0.00000000000000000e+00 0.00000000000000000e+00 0.00000000000000000e+00 0.00000000000000000e+00 0.00000000000000000e+00 0.00000000000000000e+00 35 head_front_camera_rgb_optical_joint 14 99 9.08000000000000057e-02 8.00000000000000017e-02 -2.19999999999999987e-02 2.22044604925031308e-16 -2.22044604925031308e-16 1.00000000000000000e+00 2.22044604925031308e-16 -1.00000000000000000e+00 -2.22044604925031308e-16 1.00000000000000000e+00 2.22044604925031357e-16 -2.22044604925031259e-16 4 1.00000000000000002e-03 0.00000000000000000e+00 0.00000000000000000e+00 0.00000000000000000e+00 1.00000000000000008e-05 0.00000000000000000e+00 1.00000000000000008e-05 0.00000000000000000e+00 0.00000000000000000e+00 1.00000000000000008e-05 35 head_front_camera_rgb_optical_frame 14 104 9.08000000000000057e-02 8.00000000000000017e-02 -2.19999999999999987e-02 2.22044604925031308e-16 -2.22044604925031308e-16 1.00000000000000000e+00 2.22044604925031308e-16 -1.00000000000000000e+00 -2.22044604925031308e-16 1.00000000000000000e+00 2.22044604925031357e-16 -2.22044604925031259e-16 8 0.00000000000000000e+00 0.00000000000000000e+00 0.00000000000000000e+00 0.00000000000000000e+00 0.00000000000000000e+00 0.00000000000000000e+00 0.00000000000000000e+00 0.00000000000000000e+00 0.00000000000000000e+00 0.00000000000000000e+00 11 cover_joint 0 1 0.00000000000000000e+00 0.00000000000000000e+00 1.30000000000000004e-01 1.00000000000000000e+00 0.00000000000000000e+00 0.00000000000000000e+00 0.00000000000000000e+00 1.00000000000000000e+00 0.00000000000000000e+00 0.00000000000000000e+00 0.00000000000000000e+00 1.00000000000000000e+00 4 2.58209999999999995e-01 2.24140000000000006e-01 2.00000000000000016e-05 4.68099999999999974e-02 2.37191879999999993e-04 6.11899999999999940e-08 2.83350520000000012e-04 -1.17990000000000000e-07 7.74000000000000016e-09 3.84970630000000026e-04 15 base_cover_link 0 106 0.00000000000000000e+00 0.00000000000000000e+00 1.30000000000000004e-01 1.00000000000000000e+00 0.00000000000000000e+00 0.00000000000000000e+00 0.00000000000000000e+00 1.00000000000000000e+00 0.00000000000000000e+00 0.00000000000000000e+00 0.00000000000000000e+00 1.00000000000000000e+00 8 0.00000000000000000e+00 0.00000000000000000e+00 0.00000000000000000e+00 0.00000000000000000e+00 0.00000000000000000e+00 0.00000000000000000e+00 0.00000000000000000e+00 0.00000000000000000e+00 0.00000000000000000e+00 0.00000000000000000e+00
